UI/Discovery-Sharing/SVG/group_outline_24px.svg

<svg width="24" height="24" viewBox="0 0 24 24" fill="none" xmlns="http://www.w3.org/2000/svg">
<path d="M20 4V20H4V4H20ZM20 2H4C3.46957 2 2.96086 2.21071 2.58579 2.58579C2.21071 2.96086 2 3.46957 2 4V20C2 20.5304 2.21071 21.0391 2.58579 21.4142C2.96086 21.7893 3.46957 22 4 22H20C20.5304 22 21.0391 21.7893 21.4142 21.4142C21.7893 21.0391 22 20.5304 22 20V4C22 3.46957 21.7893 2.96086 21.4142 2.58579C21.0391 2.21071 20.5304 2 20 2ZM11 7H7V11H11V7ZM17 7H13V11H17V7ZM17 13H13V17H17V13ZM11 13H7V17H11V13Z" fill="#0F1621"/>
</svg>

<svg xmlns="http://www.w3.org/2000/svg" width="24" height="24" viewBox="0 0 24 24"><rect width="24" height="24" style="fill:none"/><path d="M20,4V20H4V4H20m0-2H4A2,2,0,0,0,2,4V20a2,2,0,0,0,2,2H20a2,2,0,0,0,2-2V4a2,2,0,0,0-2-2ZM11,7H7v4h4Zm6,0H13v4h4Zm0,6H13v4h4Zm-6,0H7v4h4Z"/></svg>
